X: 23889
T: Lobsterman's, The
R: reel
M: 4/4
K: Ddorian
|:"Dm" A2FA DAFA|(3ABAAB cBAG|"C" E2CE G,ECE|"G7" DEFG ABcB|
"Dm" A2FA DAFA|A2AB cBAG|"Am" A^GAB cBA=G|AGFE "Dm" D2D2:|
|:"Dm" (3efedc dcAG|AGAB "F" c2AB|"C" c2cd cBAG|"A7sus4" ABAG "A" E2E2|
"Dm"(3efedc dcAG|AGAB "F" c2AB|"Am" A^GAB cBA=G|AGFE "Dm" D2D2:|

